X:4
T:The Flowers of the Red Hill
S:Tommy Peoples, Donegal (fiddle)
D:Demo tape - 197?
R:Reel
N:As played
Z:Bernie Stocks
M:4/4
K:G
eA(3.A.A.A eAgA | eA(3.A.A.A eAdA |eA(3.A.A.A ea{b}ae | {a}gedB GABd :|
ea~a2 ba~a2 | ea{b}ae gedg | ea~a2 (3babag | eBde gdBd |
ea~a2 ba{b}ag | ea{b}ae ~g3a | bg~g2 aged | ea{b}ag edBd ||
<end>
<start>
